T: Girls Of The Town
M: 6/8
L: 1/8
K: Amaj
fef fef|fef fef|fef fef|fef fef|ece ece|ece ece|fef f2g|agf ecb|AFE A2F|EC,A,
